flaticon/technology/iphone-4.svg

<svg xmlns="http://www.w3.org/2000/svg" width="32" height="32" viewBox="0 0 24 24">
    <path d="M7.925781 7.246094C8.039062 7.246094 8.15625 7.199219 8.246094 7.113281L10.054688 5.300781C10.234375 5.125 10.234375 4.839844 10.054688 4.660156 9.878906 4.484375 9.59375 4.484375 9.414062 4.660156L7.605469 6.472656C7.425781 6.648438 7.425781 6.9375 7.605469 7.113281 7.691406 7.199219 7.808594 7.246094 7.925781 7.246094zM7.925781 9.507812C8.039062 9.507812 8.15625 9.464844 8.246094 9.375L9.148438 8.472656C9.328125 8.292969 9.328125 8.007812 9.148438 7.832031 8.972656 7.652344 8.6875 7.652344 8.511719 7.832031L7.605469 8.738281C7.425781 8.914062 7.425781 9.199219 7.605469 9.375 7.691406 9.464844 7.808594 9.507812 7.925781 9.507812zM9.414062 6.921875C9.332031 7.007812 9.285156 7.128906 9.285156 7.246094 9.285156 7.363281 9.332031 7.480469 9.414062 7.566406 9.5 7.648438 9.617188 7.699219 9.734375 7.699219 9.855469 7.699219 9.972656 7.648438 10.058594 7.566406 10.140625 7.480469 10.1875 7.363281 10.1875 7.246094 10.1875 7.128906 10.140625 7.007812 10.058594 6.921875 9.890625 6.757812 9.585938 6.757812 9.414062 6.921875zM10.320312 6.660156C10.410156 6.75 10.527344 6.792969 10.640625 6.792969 10.757812 6.792969 10.875 6.75 10.960938 6.660156L12.320312 5.300781C12.496094 5.125 12.496094 4.839844 12.320312 4.660156 12.144531 4.484375 11.855469 4.484375 11.679688 4.660156L10.320312 6.019531C10.144531 6.195312 10.144531 6.484375 10.320312 6.660156zM11.679688 6.925781L7.605469 11C7.425781 11.175781 7.425781 11.464844 7.605469 11.640625 7.691406 11.730469 7.808594 11.773438 7.925781 11.773438 8.039062 11.773438 8.15625 11.730469 8.246094 11.640625L12.320312 7.566406C12.496094 7.386719 12.496094 7.101562 12.320312 6.925781 12.144531 6.75 11.855469 6.75 11.679688 6.925781zM12.585938 6.019531C12.503906 6.105469 12.453125 6.222656 12.453125 6.339844 12.453125 6.457031 12.503906 6.574219 12.585938 6.660156 12.671875 6.742188 12.789062 6.792969 12.90625 6.792969 13.023438 6.792969 13.140625 6.742188 13.226562 6.660156 13.308594 6.574219 13.359375 6.457031 13.359375 6.339844 13.359375 6.222656 13.308594 6.105469 13.226562 6.019531 13.058594 5.851562 12.757812 5.851562 12.585938 6.019531zM13.945312 4.660156L13.492188 5.113281C13.3125 5.289062 13.3125 5.578125 13.492188 5.753906 13.578125 5.84375 13.695312 5.886719 13.8125 5.886719 13.925781 5.886719 14.042969 5.84375 14.132812 5.753906L14.585938 5.300781C14.761719 5.125 14.761719 4.839844 14.585938 4.660156 14.40625 4.484375 14.121094 4.484375 13.945312 4.660156zM13.945312 4.660156"/>
    <path d="M 16.015625 0 L 8.4375 0 C 6.578125 0 5.042969 1.386719 4.792969 3.175781 C 4.78125 3.175781 4.769531 3.167969 4.753906 3.167969 C 4.503906 3.167969 4.300781 3.371094 4.300781 3.621094 L 4.300781 4.074219 C 4.300781 4.324219 4.503906 4.527344 4.753906 4.527344 L 4.753906 4.980469 C 4.503906 4.980469 4.300781 5.183594 4.300781 5.433594 L 4.300781 5.886719 C 4.300781 6.136719 4.503906 6.339844 4.753906 6.339844 L 4.753906 6.792969 C 4.503906 6.792969 4.300781 6.996094 4.300781 7.246094 L 4.300781 7.699219 C 4.300781 7.949219 4.503906 8.152344 4.753906 8.152344 L 4.753906 20.316406 C 4.753906 22.347656 6.40625 24 8.4375 24 L 16.015625 24 C 18.046875 24 19.699219 22.347656 19.699219 20.316406 L 19.699219 3.683594 C 19.699219 1.652344 18.046875 0 16.015625 0 Z M 18.792969 20.316406 C 18.792969 21.847656 17.546875 23.09375 16.015625 23.09375 L 8.4375 23.09375 C 6.90625 23.09375 5.660156 21.847656 5.660156 20.316406 L 5.660156 3.683594 C 5.660156 2.152344 6.90625 0.90625 8.4375 0.90625 L 16.015625 0.90625 C 17.546875 0.90625 18.792969 2.152344 18.792969 3.683594 Z M 18.792969 20.316406"/>
    <path d="M7.242188 3.167969C6.621094 3.167969 6.113281 3.675781 6.113281 4.300781L6.113281 18.792969C6.113281 19.417969 6.621094 19.925781 7.242188 19.925781L17.210938 19.925781C17.832031 19.925781 18.339844 19.417969 18.339844 18.792969L18.339844 4.300781C18.339844 3.675781 17.832031 3.167969 17.210938 3.167969zM17.433594 4.300781L17.433594 18.792969C17.433594 18.917969 17.332031 19.019531 17.210938 19.019531L7.242188 19.019531C7.121094 19.019531 7.019531 18.917969 7.019531 18.792969L7.019531 4.300781C7.019531 4.175781 7.121094 4.074219 7.242188 4.074219L17.210938 4.074219C17.332031 4.074219 17.433594 4.175781 17.433594 4.300781zM12.453125 2.71875L13.8125 2.71875C14.0625 2.71875 14.265625 2.515625 14.265625 2.265625 14.265625 2.015625 14.0625 1.8125 13.8125 1.8125L12.453125 1.8125C12.203125 1.8125 12 2.015625 12 2.265625 12 2.515625 12.203125 2.71875 12.453125 2.71875zM10.640625 2.71875C10.757812 2.71875 10.878906 2.667969 10.964844 2.585938 11.042969 2.5 11.09375 2.382812 11.09375 2.265625 11.09375 2.144531 11.042969 2.027344 10.964844 1.941406 10.789062 1.773438 10.488281 1.773438 10.320312 1.941406 10.238281 2.027344 10.1875 2.140625 10.1875 2.265625 10.1875 2.382812 10.238281 2.5 10.320312 2.585938 10.40625 2.667969 10.523438 2.71875 10.640625 2.71875zM13.359375 21.507812C13.359375 22.132812 12.851562 22.640625 12.226562 22.640625 11.601562 22.640625 11.09375 22.132812 11.09375 21.507812 11.09375 20.882812 11.601562 20.378906 12.226562 20.378906 12.851562 20.378906 13.359375 20.882812 13.359375 21.507812zM13.359375 21.507812"/>
</svg>

<svg xmlns="http://www.w3.org/2000/svg" width="32" height="32" viewBox="0 0 24 24">
    <path d="M7.926 7.246a.47.47 0 0 0 .32-.133l1.809-1.812a.448.448 0 0 0 0-.64.455.455 0 0 0-.64 0l-1.81 1.812a.448.448 0 0 0 0 .64.456.456 0 0 0 .32.133zm0 0M7.926 9.508c.113 0 .23-.043.32-.133l.902-.902a.448.448 0 0 0 0-.641.443.443 0 0 0-.636 0l-.907.906a.443.443 0 0 0 0 .637.44.44 0 0 0 .32.133zm0 0M9.414 6.922a.47.47 0 0 0 0 .645.473.473 0 0 0 .32.132c.121 0 .239-.05.325-.133a.47.47 0 0 0 0-.644.484.484 0 0 0-.645 0zm0 0M10.32 6.66a.453.453 0 0 0 .64 0l1.36-1.36a.455.455 0 0 0 0-.64.455.455 0 0 0-.64 0l-1.36 1.36a.455.455 0 0 0 0 .64zm0 0M11.68 6.926L7.605 11a.448.448 0 0 0 0 .64.453.453 0 0 0 .64 0l4.075-4.074a.455.455 0 0 0 0-.64.455.455 0 0 0-.64 0zm0 0M12.586 6.02a.473.473 0 0 0-.133.32c0 .117.05.234.133.32a.473.473 0 0 0 .32.133c.117 0 .235-.05.32-.133a.473.473 0 0 0 .133-.32.473.473 0 0 0-.132-.32.47.47 0 0 0-.641 0zm0 0M13.945 4.66l-.453.453a.448.448 0 0 0 0 .64.453.453 0 0 0 .64 0l.454-.452a.455.455 0 0 0 0-.64.455.455 0 0 0-.64 0zm0 0"/>
    <path d="M16.016 0H8.438a3.688 3.688 0 0 0-3.645 3.176c-.012 0-.023-.008-.04-.008a.453.453 0 0 0-.452.453v.453c0 .25.203.453.453.453v.453a.453.453 0 0 0-.453.454v.453c0 .25.203.453.453.453v.453a.453.453 0 0 0-.453.453V7.7c0 .25.203.453.453.453v12.164A3.688 3.688 0 0 0 8.438 24h7.578a3.688 3.688 0 0 0 3.683-3.684V3.684A3.688 3.688 0 0 0 16.016 0zm2.777 20.316a2.78 2.78 0 0 1-2.777 2.778H8.438a2.78 2.78 0 0 1-2.778-2.778V3.684A2.78 2.78 0 0 1 8.437.906h7.579a2.78 2.78 0 0 1 2.777 2.778zm0 0"/>
    <path d="M7.242 3.168c-.62 0-1.129.508-1.129 1.133v14.492c0 .625.508 1.133 1.13 1.133h9.968c.621 0 1.129-.508 1.129-1.133V4.301c0-.625-.508-1.133-1.13-1.133zm10.192 1.133v14.492a.226.226 0 0 1-.223.227H7.242a.226.226 0 0 1-.222-.227V4.301c0-.125.101-.227.222-.227h9.969c.121 0 .223.102.223.227zm0 0M12.453 2.719h1.36a.453.453 0 0 0 0-.906h-1.36a.453.453 0 0 0 0 .906zm0 0M10.64 2.719c.118 0 .239-.051.325-.133a.488.488 0 0 0 .129-.32.49.49 0 0 0-.13-.325.475.475 0 0 0-.644 0 .468.468 0 0 0-.133.325c0 .117.051.234.133.32a.473.473 0 0 0 .32.133zm0 0M13.36 21.508a1.134 1.134 0 0 1-2.266 0 1.13 1.13 0 0 1 1.133-1.13 1.13 1.13 0 0 1 1.132 1.13zm0 0"/>
</svg>
